newicons/dewu.svg

<?xml version="1.0" encoding="UTF-8" standalone="no"?>
<svg
   viewBox="0 0 48 48"
   version="1.1"
   id="svg1"
   sodipodi:docname="dewu.svg"
   inkscape:version="1.2.2 (b0a8486541, 2022-12-01)"
   xml:space="preserve"
   xmlns:inkscape="http://www.inkscape.org/namespaces/inkscape"
   xmlns:sodipodi="http://sodipodi.sourceforge.net/DTD/sodipodi-0.dtd"
   xmlns="http://www.w3.org/2000/svg"
   xmlns:svg="http://www.w3.org/2000/svg"><sodipodi:namedview
     id="namedview1"
     pagecolor="#505050"
     bordercolor="#eeeeee"
     borderopacity="1"
     inkscape:showpageshadow="0"
     inkscape:pageopacity="0"
     inkscape:pagecheckerboard="0"
     inkscape:deskcolor="#505050"
     inkscape:zoom="8.90625"
     inkscape:cx="1.7964912"
     inkscape:cy="31.663158"
     inkscape:window-width="1918"
     inkscape:window-height="1053"
     inkscape:window-x="0"
     inkscape:window-y="0"
     inkscape:window-maximized="1"
     inkscape:current-layer="svg1"
     showgrid="false" /><defs
     id="defs1"><style
       id="style1">.a { fill:none;stroke:#fff;stroke-linecap:round;stroke-linejoin:round; }
</style></defs><g
     id="g2050"><path
       style="fill:none;stroke:#ffffff;stroke-width:1;stroke-linecap:round;stroke-linejoin:round;stroke-dashoffset:3.6;stroke-opacity:1"
       d="M 4.5000008,17.532915 H 6.102312 v 17.323897"
       id="path2014" /><path
       style="fill:none;stroke:#ffffff;stroke-width:1;stroke-linecap:round;stroke-linejoin:round;stroke-dashoffset:3.6;stroke-opacity:1"
       d="M 4.5000008,13.467608 H 6.102312"
       id="path2012" /><path
       style="fill:none;stroke:#ffffff;stroke-width:1;stroke-linecap:round;stroke-linejoin:round;stroke-dashoffset:3.6;stroke-opacity:1"
       d="m 10.254469,13.467608 h 11.302907 v 8.202761 H 10.254469 Z"
       id="path2010" /><path
       style="fill:none;stroke:#ffffff;stroke-width:1;stroke-linecap:round;stroke-linejoin:round;stroke-dashoffset:3.6;stroke-opacity:1"
       d="M 10.254551,17.561569 H 21.558989"
       id="path2008" /><path
       style="fill:none;stroke:#ffffff;stroke-width:1;stroke-linecap:round;stroke-linejoin:round;stroke-dashoffset:3.6;stroke-opacity:1"
       d="M 10.254551,25.775349 H 21.558989"
       id="path2006" /><path
       style="fill:none;stroke:#ffffff;stroke-width:1;stroke-linecap:round;stroke-linejoin:round;stroke-dashoffset:3.6;stroke-opacity:1"
       d="M 10.254551,29.923822 H 21.558989"
       id="path2004" /><path
       style="fill:none;stroke:#ffffff;stroke-width:1;stroke-linecap:round;stroke-linejoin:round;stroke-dashoffset:3.6;stroke-opacity:1"
       d="m 11.516741,33.656459 1.204073,0.956418 h 6.745087 c 0.562791,0 1.384039,0.06699 1.384039,-0.967874 v -7.869372"
       id="path2002" /></g><g
     id="g2041"><path
       style="fill:none;stroke:#ffffff;stroke-width:1;stroke-linecap:round;stroke-linejoin:round;stroke-dashoffset:3.6;stroke-opacity:1"
       d="m 26.505542,29.923822 h 5.311163"
       id="path2000" /><path
       style="fill:none;stroke:#ffffff;stroke-width:1;stroke-linecap:round;stroke-linejoin:round;stroke-dashoffset:3.6;stroke-opacity:1"
       d="m 26.505542,14.759627 h 5.311163"
       id="path1998" /><path
       style="fill:none;stroke:#ffffff;stroke-width:1;stroke-linecap:round;stroke-linejoin:round;stroke-dashoffset:3.6;stroke-opacity:1"
       d="M 26.505663,13.716963 V 26.122929"
       id="path1996" /><path
       style="fill:none;stroke:#ffffff;stroke-width:1;stroke-linecap:round;stroke-linejoin:round;stroke-dashoffset:3.6;stroke-opacity:1"
       d="M 30.790119,13.143188 V 34.856812"
       id="path1994" /><path
       style="fill:none;stroke:#ffffff;stroke-width:1;stroke-linecap:round;stroke-linejoin:round;stroke-dashoffset:3.6;stroke-opacity:1"
       d="m 36.259888,33.656459 1.204073,0.956418 h 4.652 c 0.56279,0 1.384051,0.06699 1.384038,-0.967874 l -2.2e-4,-18.885796 -8.440375,4.2e-4"
       id="path1992" /><path
       style="fill:none;stroke:#ffffff;stroke-width:1;stroke-linecap:round;stroke-linejoin:round;stroke-dashoffset:3.6;stroke-opacity:1"
       d="m 35.059404,13.143188 -2.1e-5,16.9414"
       id="path1990" /><path
       style="fill:none;stroke:#ffffff;stroke-width:1;stroke-linecap:round;stroke-linejoin:round;stroke-dashoffset:3.6;stroke-opacity:1"
       d="m 39.27971,14.759578 -1.9e-5,15.32501"
       id="path1974" /></g></svg>

<?xml version="1.0" encoding="UTF-8"?><svg id="a" xmlns="http://www.w3.org/2000/svg" viewBox="0 0 48 48"><defs><style>.r{fill:none;stroke:#fff;stroke-linecap:round;stroke-linejoin:round;}</style></defs><g id="b"><path id="c" class="r" d="M4.5,17.5329h1.6023v17.3239"/><path id="d" class="r" d="M4.5,13.4676h1.6023"/><path id="e" class="r" d="M10.2545,13.4676h11.3029v8.2028h-11.3029v-8.2028Z"/><path id="f" class="r" d="M10.2546,17.5616h11.3044"/><path id="g" class="r" d="M10.2546,25.7753h11.3044"/><path id="h" class="r" d="M10.2546,29.9238h11.3044"/><path id="i" class="r" d="M11.5167,33.6565l1.2041.9564h6.7451c.5628,0,1.384.067,1.384-.9679v-7.8694"/></g><g id="j"><path id="k" class="r" d="M26.5055,29.9238h5.3112"/><path id="l" class="r" d="M26.5055,14.7596h5.3112"/><path id="m" class="r" d="M26.5057,13.717v12.406"/><path id="n" class="r" d="M30.7901,13.1432v21.7136"/><path id="o" class="r" d="M36.2599,33.6565l1.2041.9564h4.652c.5628,0,1.3841.067,1.384-.9679l-.0002-18.8858-8.4404.0004"/><path id="p" class="r" d="M35.0594,13.1432v16.9414"/><path id="q" class="r" d="M39.2797,14.7596v15.325"/></g></svg>
